dist/images/icons/spedometer.svg

<svg width="24" height="24" viewBox="0 0 24 24" fill="none" xmlns="http://www.w3.org/2000/svg">
<path d="M12 13.5C12.4142 13.5 12.75 13.1642 12.75 12.75C12.75 12.3358 12.4142 12 12 12C11.5858 12 11.25 12.3358 11.25 12.75C11.25 13.1642 11.5858 13.5 12 13.5Z" fill="#112211"/>
<path d="M13.125 3.82031V3.375C13.125 3.07663 13.0065 2.79048 12.7955 2.5795C12.5845 2.36853 12.2984 2.25 12 2.25C11.7016 2.25 11.4155 2.36853 11.2045 2.5795C10.9935 2.79048 10.875 3.07663 10.875 3.375V3.82031C9.45433 3.99866 8.09716 4.51513 6.91735 5.32641L6.42188 4.82812C6.21053 4.61678 5.92389 4.49805 5.625 4.49805C5.32612 4.49805 5.03947 4.61678 4.82813 4.82812C4.61678 5.03947 4.49805 5.32611 4.49805 5.625C4.49805 5.92389 4.61678 6.21053 4.82813 6.42188L5.23125 6.825C3.79135 8.46272 2.99805 10.5693 3 12.75C3 17.7127 7.03735 21.75 12 21.75C16.9627 21.75 21 17.7127 21 12.75C21 8.16844 17.5584 4.37531 13.125 3.82031ZM12 15C11.4694 14.9998 10.9558 14.8121 10.5502 14.4701C10.1445 14.128 9.87279 13.6535 9.78305 13.1305C9.69331 12.6075 9.79131 12.0696 10.0597 11.6118C10.3282 11.1541 10.7498 10.8059 11.25 10.6289V7.125C11.25 6.92609 11.329 6.73532 11.4697 6.59467C11.6103 6.45402 11.8011 6.375 12 6.375C12.1989 6.375 12.3897 6.45402 12.5303 6.59467C12.671 6.73532 12.75 6.92609 12.75 7.125V10.6289C13.2503 10.8059 13.6718 11.1541 13.9403 11.6118C14.2087 12.0696 14.3067 12.6075 14.217 13.1305C14.1272 13.6535 13.8555 14.128 13.4498 14.4701C13.0442 14.8121 12.5307 14.9998 12 15Z" fill="#112211"/>
</svg>

<svg width="24" height="24" fill="none" xmlns="http://www.w3.org/2000/svg"><path d="M12 13.5a.75.75 0 100-1.5.75.75 0 000 1.5z" fill="#121"/><path d="M13.125 3.82v-.445a1.125 1.125 0 10-2.25 0v.445a8.953 8.953 0 00-3.958 1.506l-.495-.498a1.127 1.127 0 00-1.594 1.594l.403.403A8.961 8.961 0 003 12.75c0 4.963 4.037 9 9 9s9-4.037 9-9c0-4.582-3.442-8.375-7.875-8.93zM12 15a2.25 2.25 0 01-.75-4.371V7.125a.75.75 0 111.5 0v3.504A2.25 2.25 0 0112 15z" fill="#121"/></svg>
